svg_80x80/ariadne.svg

<svg viewBox="0 0 80 80" fill="none" xmlns="http://www.w3.org/2000/svg">
<rect width="100%" height="100%" fill="white"/>
<path d="M51.3075 50.9824C51.2039 50.7645 51.1447 50.6204 51.0706 50.4838C49.8158 48.2272 48.5573 45.9707 47.3135 43.7105C47.1581 43.4261 46.9767 43.3264 46.6546 43.3264C42.0276 43.3375 37.397 43.3338 32.77 43.3301C31.9186 43.3301 31.3189 43.6847 30.9229 44.4528C28.8944 48.3713 26.8474 52.275 24.8152 56.1897C24.4747 56.8471 23.9713 57.198 23.2161 57.1462C22.5758 57.1019 22.1353 56.7695 21.8984 56.186C21.6911 55.6764 21.7688 55.1815 22.0242 54.6977C23.4456 51.9795 24.8634 49.2576 26.2811 46.5358C26.9214 45.306 27.5581 44.0724 28.2059 42.85C29.135 41.0957 30.6304 40.202 32.5849 40.1835C36.6196 40.1429 40.6581 40.1725 44.6965 40.1725H45.3517C43.4083 36.6787 41.5131 33.2662 39.5735 29.7725C39.4476 29.9682 39.3588 30.0938 39.2848 30.2304C38.4741 31.6708 37.6709 33.1148 36.8602 34.5551C36.5197 35.1645 35.9977 35.4858 35.2907 35.4267C34.643 35.375 34.1914 35.0242 33.9582 34.4148C33.7879 33.9679 33.8101 33.5137 34.047 33.089C35.3722 30.7032 36.7196 28.3285 38.0336 25.9353C38.6666 24.783 40.5433 24.9566 41.1022 26.0018C42.1387 27.9407 43.2344 29.8464 44.3041 31.7705C47.9761 38.3739 51.6333 44.981 55.3349 51.5696C55.9827 52.7218 55.3904 54.1437 53.832 54.1363C48.0798 54.1142 42.3275 54.1326 36.5752 54.1178C36.1717 54.1178 35.9829 54.2397 35.8275 54.609C34.2358 58.3687 32.6145 62.1173 31.0191 65.8769C30.6897 66.6525 30.1455 67.0033 29.3016 66.9996C22.9274 66.9885 16.557 66.9885 10.1828 66.9996C9.44251 66.9996 8.91319 66.73 8.52822 66.1022C7.99519 65.2343 7.45846 64.3701 6.88471 63.528C6.3887 62.7968 6.3813 62.1136 6.81068 61.3417C9.77196 56.0309 12.7073 50.7091 15.6538 45.3909C21.8132 34.256 27.9875 23.1174 34.1544 11.9788C34.5171 11.3251 35.0242 10.9927 35.7979 11.0001C38.4001 11.0186 41.0023 11.0223 43.6045 11.0001C44.393 10.9927 44.9149 11.3177 45.2888 11.9862C50.8115 21.8137 56.338 31.6412 61.8645 41.4651C65.6475 48.1903 69.4231 54.9193 73.2136 61.6445C73.5948 62.3204 73.6022 62.9408 73.1951 63.5982C72.7065 64.3885 72.2512 65.201 71.7885 66.0062C71.4442 66.6081 70.963 66.9184 70.2412 66.9184C67.8907 66.9258 65.5402 66.9553 63.1897 66.9996C62.5271 67.0107 62.0274 66.7817 61.6017 66.2868C60.8651 65.4374 60.0951 64.6212 59.3585 63.7755C59.1364 63.517 58.9032 63.4172 58.559 63.4209C53.2361 63.432 47.9132 63.4283 42.5903 63.4283C41.6279 63.4283 41.0615 63.0886 40.7913 62.3536C40.4323 61.3823 41.1022 60.3445 42.135 60.2707C42.2979 60.2596 42.4607 60.2633 42.6236 60.2633C48.213 60.2633 53.8024 60.2707 59.3918 60.2522C60.1358 60.2522 60.6911 60.4812 61.1686 61.0462C61.8941 61.903 62.6529 62.7303 63.4266 63.5465C63.5746 63.7016 63.8485 63.8235 64.0632 63.8235C65.7623 63.8198 67.465 63.7866 69.164 63.7386C69.3195 63.7349 69.5046 63.6019 69.6119 63.4763C70.0746 62.9482 70.082 62.4681 69.7045 61.7996C61.0723 46.5099 52.4698 31.2017 43.8636 15.8973C43.5971 15.4208 43.3195 14.9518 43.0641 14.468C42.9456 14.2464 42.805 14.1541 42.5459 14.1541C40.684 14.1652 38.8184 14.1689 36.9565 14.1504C36.6196 14.1504 36.4938 14.3166 36.3605 14.5603C34.1692 18.5231 31.9741 22.4859 29.7791 26.4486C23.2272 38.2705 16.6791 50.096 10.1199 61.9104C9.93112 62.2465 10.0015 62.4607 10.1495 62.782C10.5419 63.6462 11.1341 63.8826 12.0892 63.8715C17.3676 63.8161 22.6461 63.8383 27.9246 63.8567C28.3466 63.8567 28.5131 63.7016 28.6612 63.3508C30.2603 59.5948 31.8742 55.8426 33.4733 52.0866C33.8027 51.311 34.3505 50.9676 35.1945 50.9676C40.3545 50.9787 45.5145 50.975 50.6746 50.975C50.8596 50.975 51.0484 50.975 51.3186 50.975L51.3075 50.9824Z" fill="#CF4942"/>
</svg>

<svg xmlns="http://www.w3.org/2000/svg" fill="none" viewBox="0 0 80 80">
  <rect width="100%" height="100%" fill="#fff"/>
  <path fill="#CF4942" d="m51.3 51-.2-.5-3.8-6.8c-.1-.3-.3-.4-.6-.4h-14a2 2 0 0 0-1.8 1.2l-6 11.7c-.4.6-1 1-1.7 1-.6-.1-1-.4-1.3-1-.2-.5-.1-1 .1-1.5l4.3-8.2 2-3.6c.8-1.8 2.3-2.7 4.3-2.7H45.4l-5.8-10.4-.3.4-2.4 4.4c-.4.6-.9.9-1.6.8-.7 0-1.1-.4-1.3-1-.2-.4-.2-.9 0-1.3l4-7.2c.7-1.1 2.5-1 3.1.1l3.2 5.8 11 19.8c.7 1.1 0 2.5-1.5 2.5H36.6c-.4 0-.6.1-.8.5L31 66c-.3.8-.9 1.1-1.7 1.1H10.2c-.8 0-1.3-.3-1.7-.9L7 63.5c-.5-.7-.5-1.4 0-2.2l8.8-16L34.2 12c.3-.7.8-1 1.6-1h7.8c.8 0 1.3.3 1.7 1l16.6 29.5 11.3 20.1c.4.7.4 1.3 0 2L71.8 66c-.4.6-.8 1-1.6 1h-7a2 2 0 0 1-1.6-.7l-2.2-2.5a1 1 0 0 0-.8-.4h-16c-1 0-1.5-.3-1.8-1-.4-1 .3-2 1.3-2.1h17.3c.7 0 1.3.2 1.8.7a60 60 0 0 0 2.2 2.5c.2.2.4.3.7.3a195.9 195.9 0 0 0 5.5-.3c.5-.6.5-1 .1-1.7L43.9 15.9l-.8-1.4c-.2-.3-.3-.3-.6-.3H37c-.4 0-.5.1-.6.4l-6.6 11.8L10 62c-.2.3-.1.6 0 .9.4.8 1 1 2 1h15.8c.4 0 .6-.1.8-.4L33.5 52c.3-.8.9-1.1 1.7-1.1h16.1Z"/>
</svg>
